!! 00000] TT[WS
!!!OTL: Biao guniang
!!!ARE: Asia, China, Shanxi Dingxiang
!! Ethnic Group: Han
!! WII, 134 (2)
!!!SCT: J0607
!!!YEM: Copyright 1995, estate of Helmut Schaffrath.
**kern
*ICvox
*Ivox
*M2/4
*k[b-e-]
*B-:
{4ddd
8ddd
8ccc
=1
8ddd
8ccc
4ddd
=2
8bb-
8bb-
8bb-
8ccc
=3
8ddd
8ccc
4bb-}
=4
{8bb-
8ccc
8ddd
8fff
=5
8ddd
8ccc
4bb-
=6
8ccc
8ddd
8gg
8ff
=7
2dd}
=8
{4bb-
8bb-
8gg
=9
4b-
4bb-
=10
4bb-
4bb-
=11
8aa
8gg
4ff}
=12
{8bb-
8gg
4bb-
=13
8dd
8ff
4dd
=14
8bb-
8aa
8gg
8ff
=15
8dd
8ff
4dd
=16
8bb-
8ccc
8ddd
8fff
=17
2ccc}
=18
{8bb-
8ccc
8ddd
8fff
=19
8ddd
8ccc
4bb-
=20
8ccc
8ddd
8aa
8gg
=21
8ff
8gg
8aa
8gg
=22
2ff}
==
!!!AGN: Xiaodiao. Qingge, Aisu
!!!ONB: ESAC (Essen Associative Code) Database: CHINA
!!!AMT: simple duple
!!!AIN: vox
!!!EED: Helmut Schaffrath
!!!EEV: 1.0
*-
